X:1
T:Fox Hunters' -- Jig
R:slip jig
B:Ryan's Mammoth Collection
N: 86 442
Z: Contributed by Ray Davies,  ray:davies99.freeserve.co.uk
M:9/8
L:1/8
K:D
  vD2F F2A G2E | D2G F2A E2D | D2F F2A G2B | AFD D2E F2D :|
|:vABc dcB AGF | d2E E2F G2E | ABc dcB ABc | d2D D2E F2D :|
|:vd2f f2d g2e | d2f f2d e2d | d2f f2d g2b | afd d2f e2d :|
|:vABc dcB AGF | B2E E2F G2E | ABc dcB ABc | d2D D2E F2D :|
